Adwaita++-Dark/actions/16/format-text-underline.svg

<svg height="16" width="16" xmlns="http://www.w3.org/2000/svg">
  <g fill="#e6ddff">
    <path d="m13 5c0-1.63-1.32-3-3-3h-6v2h6c.43 0 1 .61 1 1v1h-5c-.92 0-1.74.38-2.25.97-.51.58-.75 1.31-.75 2.03s.27 1.45.78 2.03 1.31.97 2.22.97h7m-7-4h5v2h-5c-.4 0-.57-.11-.72-.28s-.28-.44-.28-.72.1-.55.25-.72c.15-.16.33-.28.75-.28z"/>
    <path d="m2 13v2h12v-2z"/>
  </g>
</svg>

<svg xmlns="http://www.w3.org/2000/svg" width="16" height="16" version="1.1">
 <path style="fill:#E6DDFF" d="M 13,5 C 13,3.37 11.68,2 10,2 H 4 V 4 H 10 C 10.43,4 11,4.61 11,5 V 6 H 6 C 5.08,6 4.26,6.38 3.75,6.97 3.24,7.55 3,8.28 3,9 3,9.72 3.27,10.45 3.78,11.03 4.29,11.61 5.09,12 6,12 H 13 M 6,8 H 11 V 10 H 6 C 5.6,10 5.43,9.89 5.28,9.72 5.13,9.55 5,9.28 5,9 5,8.72 5.1,8.45 5.25,8.28 5.4,8.12 5.58,8 6,8 Z"/>
 <path style="fill:#E6DDFF" d="M 2,13 V 15 H 14 V 13 Z"/>
</svg>
